assets/sonr-icons/savings.svg

<svg xmlns="http://www.w3.org/2000/svg" width="24" height="24" fill="none" viewBox="0 0 24 24"><path fill="#000" fill-rule="evenodd" d="M11.52 2.40002C13.6875 2.40002 15.4817 3.9956 15.7924 6.07646L17.4996 5.58857C17.6437 5.54728 17.8067 5.5006 17.9509 5.47306C18.1093 5.44282 18.3551 5.41156 18.6301 5.48865L18.6358 5.49027C18.9761 5.58791 19.2739 5.80849 19.4648 6.11755L19.4656 6.11889C19.6155 6.3625 19.6529 6.60759 19.6672 6.76834C19.6801 6.91301 19.6801 7.08115 19.68 7.22987L19.68 8.25582C20.1986 8.78539 20.6304 9.4005 20.9528 10.0791C21.0407 10.0795 21.1354 10.0812 21.2216 10.088C21.3546 10.0984 21.5447 10.1251 21.746 10.2223C22.0415 10.3646 22.2757 10.601 22.4168 10.8922C22.5147 11.0941 22.5416 11.285 22.5521 11.4185C22.5611 11.5336 22.561 11.664 22.561 11.7728L22.561 15.0942C22.5611 15.2087 22.5611 15.345 22.5513 15.465C22.54 15.6044 22.5108 15.803 22.4058 16.0111C22.2656 16.2884 22.0422 16.5067 21.7759 16.6428L21.7717 16.645C21.5636 16.7501 21.3653 16.779 21.226 16.7904C21.106 16.8001 20.9696 16.8001 20.8552 16.8L20.3949 16.8C19.7289 17.7551 18.8219 18.5285 17.76 19.033L17.76 19.8942C17.7601 20.0087 17.7601 20.145 17.7503 20.265C17.739 20.4044 17.7098 20.603 17.6048 20.8111C17.4646 21.0884 17.2412 21.3067 16.9749 21.4428L16.9707 21.445C16.7626 21.5501 16.5643 21.579 16.425 21.5904C16.305 21.6001 16.1687 21.6001 16.0542 21.6H14.1858C14.0713 21.6001 13.935 21.6001 13.815 21.5904C13.6757 21.579 13.4774 21.5501 13.2694 21.445L13.2651 21.4428C12.9953 21.305 12.7751 21.0847 12.6372 20.8149L12.635 20.8107C12.53 20.6026 12.501 20.4044 12.4897 20.265C12.4799 20.145 12.48 20.0087 12.48 19.8942L12.48 19.68H11.52L11.52 19.8942C11.5201 20.0087 11.5201 20.145 11.5103 20.265C11.499 20.4044 11.4698 20.603 11.3648 20.8111C11.2246 21.0884 11.0012 21.3067 10.7349 21.4428L10.7307 21.445C10.5226 21.5501 10.3243 21.579 10.185 21.5904C10.065 21.6001 9.92868 21.6001 9.81423 21.6H7.94578C7.83132 21.6001 7.69504 21.6001 7.57501 21.5904C7.43567 21.579 7.237 21.5498 7.02892 21.4448C6.75165 21.3046 6.53328 21.0812 6.39718 20.8149L6.39502 20.8107C6.28997 20.6026 6.26098 20.4044 6.24966 20.265C6.2399 20.145 6.23995 20.0087 6.24 19.8942L6.24 17.6632C5.26444 16.6678 4.59545 15.3677 4.38815 13.92H4.32C2.72981 13.92 1.44 12.6302 1.44 11.04C1.44 9.97238 2.02096 9.04251 2.87935 8.54602C3.3383 8.28056 3.92555 8.43742 4.19101 8.89637C4.45647 9.35533 4.29961 9.94257 3.84065 10.208C3.55104 10.3755 3.36 10.6857 3.36 11.04C3.36 11.5698 3.7902 12 4.32 12H4.38807C4.66089 10.0932 5.73425 8.44533 7.2543 7.40699C7.21857 7.18328 7.2 6.95382 7.2 6.72002C7.2 4.33383 9.13381 2.40002 11.52 2.40002ZM9.12 6.72002C9.12 5.39422 10.1942 4.32002 11.52 4.32002C12.8458 4.32002 13.92 5.39422 13.92 6.72002C13.92 6.80469 13.9156 6.88832 13.9071 6.97072C13.8928 7.02963 13.8839 7.09066 13.881 7.15326C13.6772 8.27216 12.6979 9.12002 11.52 9.12002C10.1942 9.12002 9.12 8.04583 9.12 6.72002ZM15.6654 8.10929C15.6508 8.11321 15.6309 8.11835 15.6069 8.12364C15.0244 9.82064 13.4148 11.04 11.52 11.04C10.0733 11.04 8.79282 10.3292 8.00884 9.23762C6.9284 10.1186 6.24 11.4595 6.24 12.96C6.24 14.278 6.77017 15.4712 7.63114 16.3395L7.64716 16.3555C7.72272 16.4306 7.85078 16.558 7.94408 16.7072L7.95009 16.7168C8.03281 16.8527 8.08402 16.9839 8.11834 17.1212L8.12134 17.1332C8.16198 17.3051 8.16074 17.4838 8.16013 17.5718L8.16 17.597V19.68H9.6L9.6 19.4658C9.59995 19.3514 9.5999 19.2151 9.60966 19.095C9.62098 18.9557 9.64997 18.7575 9.75502 18.5494L9.75717 18.5451C9.89506 18.2753 10.1153 18.0551 10.3851 17.9172L10.3893 17.915C10.5974 17.81 10.7957 17.781 10.935 17.7697C11.0551 17.7599 11.1914 17.76 11.3058 17.76H12.6942C12.8086 17.76 12.945 17.7599 13.065 17.7697C13.2043 17.781 13.4026 17.81 13.6107 17.915L13.6149 17.9172C13.8812 18.0533 14.1046 18.2717 14.2448 18.5489C14.3498 18.757 14.379 18.9557 14.3903 19.095C14.4001 19.2151 14.4001 19.3514 14.4 19.4658L14.4 19.68H15.84V18.935L15.8397 18.897C15.8383 18.7651 15.8355 18.4955 15.9217 18.2495C15.9214 18.2502 15.9212 18.2509 15.921 18.2516L16.828 18.566L15.9245 18.2417C15.9235 18.2443 15.9226 18.2469 15.9217 18.2495C15.9987 18.0284 16.116 17.8517 16.2713 17.6991C16.4002 17.5726 16.5369 17.495 16.6215 17.4502C16.7 17.4087 16.7938 17.3651 16.8783 17.3258L16.8986 17.3164C17.684 16.9515 18.3548 16.3804 18.8413 15.671L18.8433 15.6681L18.8562 15.6494C18.8985 15.5883 18.9465 15.5187 18.9905 15.4607C19.0397 15.3958 19.1219 15.2931 19.2405 15.1978C19.3883 15.0788 19.5477 14.9938 19.7367 14.9386L20.006 15.86L19.7314 14.9401C19.9434 14.8768 20.1705 14.8788 20.2815 14.8798L20.313 14.88H20.641V11.9978C20.5099 11.9929 20.3447 11.9765 20.1894 11.9248L20.186 11.9236C19.9611 11.8477 19.768 11.7271 19.5989 11.547C19.4818 11.4226 19.4092 11.2926 19.3676 11.2135C19.3291 11.14 19.2881 11.052 19.2511 10.9725L19.2397 10.948C19.0033 10.437 18.6803 9.97466 18.2887 9.57941L18.2728 9.56358C18.1973 9.48844 18.0692 9.3611 17.9759 9.21182L17.97 9.20217C17.8873 9.06629 17.836 8.93516 17.8017 8.79786L17.7987 8.78585C17.758 8.6136 17.7593 8.43462 17.7599 8.34672L17.76 8.32202V7.51103L15.7268 8.09207L15.6999 8.09972C15.6919 8.102 15.6792 8.10561 15.6654 8.10929ZM20.9991 10.2332L20.9963 10.2303L20.9823 10.142L20.9875 10.1531C21.0074 10.1958 21.0232 10.2297 21.0371 10.2589C21.0525 10.2912 21.0618 10.3099 21.0676 10.321C21.0705 10.3265 21.0705 10.3264 21.0705 10.3264C21.0705 10.3264 21.0688 10.3235 21.0662 10.3193C21.0648 10.3171 21.0632 10.3145 21.0614 10.3118C21.0515 10.2966 21.0311 10.2676 20.9991 10.2332Z" clip-rule="evenodd"/></svg>

<svg xmlns="http://www.w3.org/2000/svg" width="24" height="24" fill="none"><path fill="currentColor" fill-rule="evenodd" d="M11.52 2.4a4.32 4.32 0 0 1 4.272 3.676L17.5 5.59c.144-.042.307-.088.45-.116.16-.03.405-.061.68.016l.006.001c.34.098.638.318.829.628.15.244.188.49.202.65.013.145.013.313.013.462v1.026a6.7 6.7 0 0 1 1.273 1.823c.088 0 .182.002.269.009.133.01.323.037.524.134.296.143.53.379.67.67.099.202.126.393.136.527.01.115.009.245.009.354v3.321c0 .115 0 .251-.01.371-.011.14-.04.338-.145.546-.14.277-.364.496-.63.632l-.004.002a1.5 1.5 0 0 1-.546.145c-.12.01-.256.01-.37.01h-.461a6.74 6.74 0 0 1-2.635 2.233v.861c0 .115 0 .251-.01.371-.011.14-.04.338-.145.546-.14.277-.364.496-.63.632l-.004.002a1.5 1.5 0 0 1-.546.145c-.12.01-.256.01-.37.01h-1.87c-.114 0-.25 0-.37-.01a1.5 1.5 0 0 1-.546-.145l-.004-.002a1.44 1.44 0 0 1-.628-.628l-.002-.004a1.5 1.5 0 0 1-.145-.546c-.01-.12-.01-.256-.01-.37v-.215h-.96v.214c0 .115 0 .251-.01.371-.011.14-.04.338-.145.546-.14.277-.364.496-.63.632l-.004.002a1.5 1.5 0 0 1-.546.145c-.12.01-.256.01-.37.01h-1.87c-.114 0-.25 0-.37-.01a1.5 1.5 0 0 1-.546-.145 1.44 1.44 0 0 1-.632-.63l-.002-.004a1.5 1.5 0 0 1-.145-.546c-.01-.12-.01-.256-.01-.37v-2.232a6.7 6.7 0 0 1-1.852-3.743H4.32a2.88 2.88 0 0 1-1.44-5.374.96.96 0 0 1 .96 1.662A.96.96 0 0 0 4.32 12h.068a6.72 6.72 0 0 1 2.866-4.593A4.32 4.32 0 0 1 11.52 2.4m-2.4 4.32a2.4 2.4 0 1 1 4.787.25 1 1 0 0 0-.026.183A2.4 2.4 0 0 1 9.12 6.72m6.545 1.39-.058.014a4.321 4.321 0 0 1-7.598 1.114A4.79 4.79 0 0 0 6.24 12.96c0 1.318.53 2.511 1.391 3.38l.016.015c.076.076.204.203.297.352l.006.01c.083.136.134.267.168.404l.003.012c.041.172.04.35.04.439l-.001.025v2.083H9.6v-.214c0-.115 0-.25.01-.371.011-.14.04-.337.145-.546l.002-.004c.138-.27.358-.49.628-.628l.004-.002c.208-.105.407-.134.546-.145.12-.01.256-.01.37-.01h1.39c.114 0 .25 0 .37.01.14.011.338.04.546.145l.004.002c.266.136.49.355.63.632.105.208.134.407.145.546.01.12.01.256.01.37v.215h1.44v-.783c-.002-.132-.005-.401.082-.647l-.001.002.907.314-.903-.324-.003.008a1.4 1.4 0 0 1 .7-.8c.078-.041.172-.085.256-.124l.02-.01a4.8 4.8 0 0 0 1.943-1.645l.002-.003.013-.019c.042-.06.09-.13.134-.188a1.395 1.395 0 0 1 .746-.522l.27.921-.275-.92c.212-.063.44-.061.55-.06h.36v-2.882a1.7 1.7 0 0 1-.452-.073l-.003-.001a1.4 1.4 0 0 1-.818-.71 6 6 0 0 1-.117-.242l-.011-.024a4.8 4.8 0 0 0-.951-1.369l-.016-.015c-.076-.076-.204-.203-.297-.352l-.006-.01a1.4 1.4 0 0 1-.168-.404l-.003-.012c-.041-.172-.04-.351-.04-.44l.001-.024v-.811l-2.033.581-.027.008zM21 10.232l-.003-.003-.014-.088.006.011.08.168.002.005-.004-.007-.005-.007a1 1 0 0 0-.062-.079" clip-rule="evenodd"/></svg>
